icons/thumb-up.svg

<svg width="24" height="24" viewBox="0 0 24 24" fill="none" xmlns="http://www.w3.org/2000/svg">
<path d="M2.71399 11H6.99999V21H2.71399C2.61885 20.9994 2.52488 20.979 2.43797 20.9403C2.35106 20.9016 2.27311 20.8453 2.20899 20.775C2.07317 20.6262 1.99853 20.4315 1.99999 20.23V11.768C1.99906 11.5667 2.07404 11.3725 2.20999 11.224C2.27399 11.1539 2.35179 11.0977 2.43851 11.0589C2.52524 11.0202 2.61902 10.9998 2.71399 10.999V11Z" stroke="white" stroke-width="2" stroke-linecap="round" stroke-linejoin="round"/>
<path d="M7 10.826L11.003 3C11.423 3 11.84 3.081 12.229 3.238C12.618 3.396 12.971 3.626 13.268 3.917C13.565 4.207 13.801 4.553 13.962 4.932C14.123 5.312 14.206 5.719 14.206 6.13V8.478H20.399C20.626 8.478 20.85 8.525 21.057 8.617C21.2631 8.70743 21.4478 8.84033 21.599 9.007C21.748 9.17228 21.8599 9.3676 21.927 9.57979C21.9941 9.79197 22.0149 10.0161 21.988 10.237L20.787 19.629C20.7374 20.0099 20.5486 20.359 20.257 20.609C19.9619 20.8621 19.5858 21.0008 19.197 21H7" stroke="white" stroke-width="2" stroke-linecap="round" stroke-linejoin="round"/>
</svg>

<svg
  width="24"
  height="24"
  viewBox="0 0 24 24"
  xmlns="http://www.w3.org/2000/svg"
  fill="none"
  stroke="currentColor"
  stroke-width="2"
  stroke-linecap="round"
  stroke-linejoin="round"
>
  <path d="M2.714 11H7v10H2.714a.69.69 0 0 1-.505-.225A.8.8 0 0 1 2 20.23v-8.462a.8.8 0 0 1 .21-.544.692.692 0 0 1 .504-.225V11z" />
  <path d="M7 10.826L11.003 3c.42 0 .837.081 1.226.238.389.158.742.388 1.039.679.297.29.533.636.694 1.015.161.38.244.787.244 1.198v2.348h6.193a1.619 1.619 0 0 1 1.2.529 1.556 1.556 0 0 1 .389 1.23l-1.201 9.392c-.05.38-.238.73-.53.98a1.623 1.623 0 0 1-1.06.391H7" />
</svg>
